source/svgs/bowtie/uE015-query.svg

<svg xmlns="http://www.w3.org/2000/svg" viewBox="0 0 448 448" enable-background="new 0 0 448 448"><path d="M336 160c-61.75 0-112 50.25-112 112 0 25.105 8.605 48.063 22.613 66.762l-81.926 81.926 22.625 22.625 81.926-81.926c18.7 14.008 41.657 22.613 66.762 22.613 61.75 0 112-50.25 112-112s-50.25-112-112-112zm0 192c-44.109 0-80-35.891-80-80s35.891-80 80-80 80 35.891 80 80-35.891 80-80 80zm-144-96v-106l96-110.766v-39.234h-288v39.234l96 110.766v106h96zm-155.734-224h215.469l-91.735 106v86h-32v-86l-91.734-106z"/></svg>

<svg xmlns="http://www.w3.org/2000/svg" viewBox="0 0 448 448"><path d="M336 160c-61.75 0-112 50.25-112 112 0 25.105 8.605 48.063 22.613 66.762l-81.926 81.926 22.625 22.625 81.926-81.926C287.938 375.395 310.895 384 336 384c61.75 0 112-50.25 112-112s-50.25-112-112-112zm0 192c-44.109 0-80-35.891-80-80s35.891-80 80-80 80 35.891 80 80-35.891 80-80 80zm-144-96V150l96-110.766V0H0v39.234L96 150v106h96zM36.266 32h215.469L160 138v86h-32v-86L36.266 32z"/></svg>
